icon_generation/src/android/drawable/has_shelter_off.shelter.inkscape.svg

<?xml version="1.0" encoding="UTF-8" standalone="no"?>
<!-- Generator: Adobe Illustrator 16.0.0, SVG Export Plug-In . SVG Version: 6.00 Build 0)  -->

<svg
   xmlns:dc="http://purl.org/dc/elements/1.1/"
   xmlns:cc="http://creativecommons.org/ns#"
   xmlns:rdf="http://www.w3.org/1999/02/22-rdf-syntax-ns#"
   xmlns:svg="http://www.w3.org/2000/svg"
   xmlns="http://www.w3.org/2000/svg"
   xmlns:sodipodi="http://sodipodi.sourceforge.net/DTD/sodipodi-0.dtd"
   xmlns:inkscape="http://www.inkscape.org/namespaces/inkscape"
   version="1.1"
   id="Calque_1"
   x="0px"
   y="0px"
   width="241.16992"
   height="241.16992"
   viewBox="0 0 241.16991 241.16992"
   enable-background="new 0 0 400.001 400"
   xml:space="preserve"
   inkscape:version="0.91 r13725"
   sodipodi:docname="Jungle bus-03.svg"
   inkscape:export-filename="/home/florian/Bureau/Jungle Bus/Appli mobile/Pictos type arrêt de bus/V2/Jungle bus-03.png"
   inkscape:export-xdpi="67"
   inkscape:export-ydpi="67"><metadata
     id="metadata23"><rdf:RDF><cc:Work
         rdf:about=""><dc:format>image/svg+xml</dc:format><dc:type
           rdf:resource="http://purl.org/dc/dcmitype/StillImage" /><dc:title></dc:title></cc:Work></rdf:RDF></metadata><defs
     id="defs21" /><sodipodi:namedview
     pagecolor="#ffffff"
     bordercolor="#666666"
     borderopacity="1"
     objecttolerance="10"
     gridtolerance="10"
     guidetolerance="10"
     inkscape:pageopacity="0"
     inkscape:pageshadow="2"
     inkscape:window-width="1855"
     inkscape:window-height="1056"
     id="namedview19"
     showgrid="false"
     inkscape:snap-object-midpoints="true"
     showguides="true"
     inkscape:guide-bbox="true"
     inkscape:snap-center="true"
     inkscape:zoom="2.36"
     inkscape:cx="78.39263"
     inkscape:cy="94.823612"
     inkscape:window-x="65"
     inkscape:window-y="24"
     inkscape:window-maximized="1"
     inkscape:current-layer="Calque_1"
     fit-margin-top="0"
     fit-margin-left="0"
     fit-margin-right="0"
     fit-margin-bottom="0" /><g
     id="g3"
     transform="translate(46.865926,-99.838318)"
     style="fill:#818182;fill-opacity:1"><path
       d="m 46.218,274.044 c 0.094,0 0.188,-0.003 0.283,-0.009 2.637,-0.155 4.648,-2.418 4.494,-5.054 -0.234,-3.976 -0.34,-7.597 -0.34,-10.894 -0.02,-14.475 2.09,-22.607 4.164,-26.852 l 0,89.668 c 0,4.082 3.311,7.391 7.391,7.391 4.082,0 7.391,-3.309 7.391,-7.391 l 0,-53.963 2.771,0 0,53.963 c 0,4.082 3.311,7.391 7.391,7.391 4.08,0 7.391,-3.309 7.391,-7.391 l 0,-73.474 c -1.723,0.626 -3.588,1.253 -5.617,1.886 -0.578,0.18 -1.176,0.271 -1.775,0.271 -2.633,0 -4.926,-1.688 -5.707,-4.203 -0.475,-1.526 -0.326,-3.144 0.416,-4.557 0.742,-1.413 1.992,-2.454 3.518,-2.927 4.031,-1.25 7,-2.383 9.166,-3.33 l 0,-6.965 c 1.859,0.605 3.859,1.405 5.363,2.271 0.424,0.237 0.801,0.481 1.125,0.712 0.434,0.31 0.766,0.594 0.965,0.811 -0.428,0.498 -1.494,1.479 -3.508,2.576 -1.725,0.963 -4.088,2.033 -7.145,3.168 0.225,0.341 0.527,0.82 0.881,1.439 0.076,-0.008 0.152,-0.023 0.23,-0.023 1.404,0 2.541,1.138 2.541,2.541 0,0.691 -0.279,1.316 -0.727,1.773 0.363,0.92 0.711,1.924 1.023,3.004 4.236,-1.602 7.484,-3.191 10.02,-4.864 1.865,-1.246 3.369,-2.55 4.527,-4.124 1.152,-1.553 1.928,-3.514 1.918,-5.531 0,-0.086 -0.002,-0.191 -0.006,-0.317 0,-0.003 0,-0.006 0,-0.009 0,-0.006 0,-0.012 0,-0.017 -0.068,-1.731 -0.686,-3.29 -1.475,-4.506 -0.117,-0.175 -0.24,-0.338 -0.361,-0.503 -1.355,-1.848 -3.035,-3.084 -4.768,-4.143 -2.846,-1.699 -5.986,-2.861 -8.721,-3.688 -1.365,-0.409 -2.623,-0.724 -3.699,-0.947 -0.732,-0.142 -1.303,-0.255 -1.916,-0.323 -0.287,-0.056 -0.586,-0.086 -0.889,-0.086 l -1.529,0 c -2.527,2.071 -5.756,3.317 -9.271,3.317 -3.515,0 -6.746,-1.246 -9.271,-3.317 l -3.023,0 c -0.096,0 -0.191,0.008 -0.285,0.014 -1.084,0.023 -2.846,0.266 -4.844,1.273 -3.215,1.594 -6.684,5.082 -9.107,11.263 -2.455,6.205 -4.102,15.176 -4.111,28.721 0,3.501 0.113,7.308 0.357,11.452 0.148,2.541 2.255,4.503 4.769,4.503 z"
       id="path5"
       inkscape:connector-curvature="0"
       style="fill:#818182;fill-opacity:1" /><path
       d="m 85.847,243.506 c -0.248,0.08 -0.508,0.136 -0.781,0.136 -1.404,0 -2.541,-1.138 -2.541,-2.541 0,-0.891 0.461,-1.672 1.154,-2.126 -0.248,-0.429 -0.471,-0.787 -0.646,-1.058 -0.096,-0.146 -0.17,-0.257 -0.234,-0.353 -1.359,0.484 -2.84,0.977 -4.455,1.479 -2.523,0.783 -3.932,3.465 -3.146,5.986 0.637,2.049 2.525,3.364 4.564,3.364 0.471,0 0.947,-0.069 1.42,-0.218 2.031,-0.633 3.891,-1.258 5.6,-1.881 -0.285,-0.997 -0.603,-1.931 -0.935,-2.788 z"
       id="path7"
       inkscape:connector-curvature="0"
       style="fill:#818182;fill-opacity:1" /><circle
       cx="71.733002"
       cy="205.491"
       r="13.45"
       id="circle9"
       style="fill:#818182;fill-opacity:1" /></g><g
     id="g11"
     transform="translate(-90.845935,-114.66883)"
     style="opacity:0.81999966;fill:#818182;fill-opacity:1"><path
       style="fill:#818182;fill-opacity:1"
       d="m 70.955078,72.654297 c -2.004,0 -3.720953,1.204687 -4.501953,2.929687 l -0.455078,0 0,2.070313 0,28.000003 0,164.01172 -15.830078,0 0,6.51171 58.291011,0 38.16993,0 44.53906,0 38.16992,0 23.83008,0 38.16992,0 0,-6.51171 -15.83008,0 0,-164.01172 0,-28.000003 0,-2.070313 -0.45703,0 c -0.781,-1.725 -2.496,-2.929687 -4.5,-2.929687 l -199.595702,0 z m 66.466802,5.804687 62.58398,0 0,20.601563 -7.89063,2.798833 -2.69335,0 c -0.0618,-2.589101 -2.17643,-4.673833 -4.78126,-4.673833 -2.60482,0 -4.71944,2.083609 -4.78124,4.673833 l -20.72266,0 c -0.0596,-2.589101 -2.17643,-4.673833 -4.78125,-4.673833 -2.60482,0 -4.71945,2.083609 -4.78125,4.673833 l -12.15039,0 -0.002,0 0,-23.400396 z m 3.21874,2.855469 0,17.689453 6.94141,0 0,-17.689453 -6.94141,0 z m 9.74024,0 0,7.611328 14.08008,0 0,-7.611328 -14.08008,0 z m 16.16406,0 0,7.611328 14.08008,0 0,-7.611328 -14.08008,0 z m 16.16406,0 0,7.611328 14.07813,0 0,-7.611328 -14.07813,0 z m -28.35351,17.214844 a 3.442007,3.442007 0 0 1 3.44141,3.441403 3.442007,3.442007 0 0 1 -3.44141,3.44336 3.442007,3.442007 0 0 1 -3.44141,-3.44336 3.442007,3.442007 0 0 1 3.44141,-3.441403 z m 30.28515,0 a 3.442007,3.442007 0 0 1 3.44336,3.441403 3.442007,3.442007 0 0 1 -3.44336,3.44336 3.442007,3.442007 0 0 1 -3.4414,-3.44336 3.442007,3.442007 0 0 1 3.4414,-3.441403 z M 72.507812,110.6543 l 196.490238,0 0,159.01172 -15.83008,0 -23.83008,0 c 0,0 -105.04883,10e-4 -105.04883,0 l -15.83008,0 -35.951168,0 0,-159.01172 z"
       transform="translate(40.677966,79.661017)"
       id="path13"
       inkscape:connector-curvature="0" /></g><g
     transform="matrix(1.1237372,0,0,1.1237372,-156.59472,-66.746838)"
     id="g3355"
     style="fill:#ffffff;fill-opacity:1" /></svg>

<?xml version="1.0" encoding="UTF-8" standalone="no"?>
<!-- Generator: Adobe Illustrator 16.0.0, SVG Export Plug-In . SVG Version: 6.00 Build 0)  -->

<svg
   xmlns:dc="http://purl.org/dc/elements/1.1/"
   xmlns:cc="http://creativecommons.org/ns#"
   xmlns:rdf="http://www.w3.org/1999/02/22-rdf-syntax-ns#"
   xmlns:svg="http://www.w3.org/2000/svg"
   xmlns="http://www.w3.org/2000/svg"
   xmlns:sodipodi="http://sodipodi.sourceforge.net/DTD/sodipodi-0.dtd"
   xmlns:inkscape="http://www.inkscape.org/namespaces/inkscape"
   version="1.1"
   id="Calque_1"
   x="0px"
   y="0px"
   width="350"
   height="350"
   viewBox="0 0 349.99999 350"
   enable-background="new 0 0 400.001 400"
   xml:space="preserve"
   inkscape:version="0.91 r13725"
   sodipodi:docname="Jungle bus-03.svg"
   inkscape:export-filename="/home/florian/Bureau/Jungle Bus/Appli mobile/Pictos type arrêt de bus/V2/Jungle bus-03.png"
   inkscape:export-xdpi="67"
   inkscape:export-ydpi="67"><metadata
     id="metadata23"><rdf:RDF><cc:Work
         rdf:about=""><dc:format>image/svg+xml</dc:format><dc:type
           rdf:resource="http://purl.org/dc/dcmitype/StillImage" /><dc:title /></cc:Work></rdf:RDF></metadata><defs
     id="defs21" /><sodipodi:namedview
     pagecolor="#ffffff"
     bordercolor="#666666"
     borderopacity="1"
     objecttolerance="10"
     gridtolerance="10"
     guidetolerance="10"
     inkscape:pageopacity="0"
     inkscape:pageshadow="2"
     inkscape:window-width="1855"
     inkscape:window-height="1056"
     id="namedview19"
     showgrid="false"
     inkscape:snap-object-midpoints="true"
     showguides="true"
     inkscape:guide-bbox="true"
     inkscape:snap-center="true"
     inkscape:zoom="2.36"
     inkscape:cx="176.10514"
     inkscape:cy="186.8351"
     inkscape:window-x="65"
     inkscape:window-y="24"
     inkscape:window-maximized="1"
     inkscape:current-layer="Calque_1" /><g
     id="g3"
     transform="translate(97.033895,-64.830508)"
     style="fill:#818182;fill-opacity:1"><path
       d="m 46.218,274.044 c 0.094,0 0.188,-0.003 0.283,-0.009 2.637,-0.155 4.648,-2.418 4.494,-5.054 -0.234,-3.976 -0.34,-7.597 -0.34,-10.894 -0.02,-14.475 2.09,-22.607 4.164,-26.852 l 0,89.668 c 0,4.082 3.311,7.391 7.391,7.391 4.082,0 7.391,-3.309 7.391,-7.391 l 0,-53.963 2.771,0 0,53.963 c 0,4.082 3.311,7.391 7.391,7.391 4.08,0 7.391,-3.309 7.391,-7.391 l 0,-73.474 c -1.723,0.626 -3.588,1.253 -5.617,1.886 -0.578,0.18 -1.176,0.271 -1.775,0.271 -2.633,0 -4.926,-1.688 -5.707,-4.203 -0.475,-1.526 -0.326,-3.144 0.416,-4.557 0.742,-1.413 1.992,-2.454 3.518,-2.927 4.031,-1.25 7,-2.383 9.166,-3.33 l 0,-6.965 c 1.859,0.605 3.859,1.405 5.363,2.271 0.424,0.237 0.801,0.481 1.125,0.712 0.434,0.31 0.766,0.594 0.965,0.811 -0.428,0.498 -1.494,1.479 -3.508,2.576 -1.725,0.963 -4.088,2.033 -7.145,3.168 0.225,0.341 0.527,0.82 0.881,1.439 0.076,-0.008 0.152,-0.023 0.23,-0.023 1.404,0 2.541,1.138 2.541,2.541 0,0.691 -0.279,1.316 -0.727,1.773 0.363,0.92 0.711,1.924 1.023,3.004 4.236,-1.602 7.484,-3.191 10.02,-4.864 1.865,-1.246 3.369,-2.55 4.527,-4.124 1.152,-1.553 1.928,-3.514 1.918,-5.531 0,-0.086 -0.002,-0.191 -0.006,-0.317 0,-0.003 0,-0.006 0,-0.009 0,-0.006 0,-0.012 0,-0.017 -0.068,-1.731 -0.686,-3.29 -1.475,-4.506 -0.117,-0.175 -0.24,-0.338 -0.361,-0.503 -1.355,-1.848 -3.035,-3.084 -4.768,-4.143 -2.846,-1.699 -5.986,-2.861 -8.721,-3.688 -1.365,-0.409 -2.623,-0.724 -3.699,-0.947 -0.732,-0.142 -1.303,-0.255 -1.916,-0.323 -0.287,-0.056 -0.586,-0.086 -0.889,-0.086 l -1.529,0 c -2.527,2.071 -5.756,3.317 -9.271,3.317 -3.515,0 -6.746,-1.246 -9.271,-3.317 l -3.023,0 c -0.096,0 -0.191,0.008 -0.285,0.014 -1.084,0.023 -2.846,0.266 -4.844,1.273 -3.215,1.594 -6.684,5.082 -9.107,11.263 -2.455,6.205 -4.102,15.176 -4.111,28.721 0,3.501 0.113,7.308 0.357,11.452 0.148,2.541 2.255,4.503 4.769,4.503 z"
       id="path5"
       inkscape:connector-curvature="0"
       style="fill:#818182;fill-opacity:1" /><path
       d="m 85.847,243.506 c -0.248,0.08 -0.508,0.136 -0.781,0.136 -1.404,0 -2.541,-1.138 -2.541,-2.541 0,-0.891 0.461,-1.672 1.154,-2.126 -0.248,-0.429 -0.471,-0.787 -0.646,-1.058 -0.096,-0.146 -0.17,-0.257 -0.234,-0.353 -1.359,0.484 -2.84,0.977 -4.455,1.479 -2.523,0.783 -3.932,3.465 -3.146,5.986 0.637,2.049 2.525,3.364 4.564,3.364 0.471,0 0.947,-0.069 1.42,-0.218 2.031,-0.633 3.891,-1.258 5.6,-1.881 -0.285,-0.997 -0.603,-1.931 -0.935,-2.788 z"
       id="path7"
       inkscape:connector-curvature="0"
       style="fill:#818182;fill-opacity:1" /><circle
       cx="71.733002"
       cy="205.491"
       r="13.45"
       id="circle9"
       style="fill:#818182;fill-opacity:1" /></g><g
     id="g11"
     transform="translate(-40.677966,-79.661017)"
     style="opacity:0.81999966;fill:#818182;fill-opacity:1"><path
       style="fill:#818182;fill-opacity:1"
       d="M 70.955078 72.654297 C 68.951078 72.654297 67.234125 73.858984 66.453125 75.583984 L 65.998047 75.583984 L 65.998047 77.654297 L 65.998047 105.6543 L 65.998047 269.66602 L 50.167969 269.66602 L 50.167969 276.17773 L 108.45898 276.17773 L 146.62891 276.17773 L 191.16797 276.17773 L 229.33789 276.17773 L 253.16797 276.17773 L 291.33789 276.17773 L 291.33789 269.66602 L 275.50781 269.66602 L 275.50781 105.6543 L 275.50781 77.654297 L 275.50781 75.583984 L 275.05078 75.583984 C 274.26978 73.858984 272.55478 72.654297 270.55078 72.654297 L 70.955078 72.654297 z M 137.42188 78.458984 L 200.00586 78.458984 L 200.00586 99.060547 L 192.11523 101.85938 L 189.42188 101.85938 C 189.36007 99.270279 187.24545 97.185547 184.64062 97.185547 C 182.0358 97.185547 179.92118 99.269156 179.85938 101.85938 L 159.13672 101.85938 C 159.07716 99.270279 156.96029 97.185547 154.35547 97.185547 C 151.75065 97.185547 149.63602 99.269156 149.57422 101.85938 L 137.42383 101.85938 L 137.42188 101.85938 L 137.42188 78.458984 z M 140.64062 81.314453 L 140.64062 99.003906 L 147.58203 99.003906 L 147.58203 81.314453 L 140.64062 81.314453 z M 150.38086 81.314453 L 150.38086 88.925781 L 164.46094 88.925781 L 164.46094 81.314453 L 150.38086 81.314453 z M 166.54492 81.314453 L 166.54492 88.925781 L 180.625 88.925781 L 180.625 81.314453 L 166.54492 81.314453 z M 182.70898 81.314453 L 182.70898 88.925781 L 196.78711 88.925781 L 196.78711 81.314453 L 182.70898 81.314453 z M 154.35547 98.529297 A 3.442007 3.442007 0 0 1 157.79688 101.9707 A 3.442007 3.442007 0 0 1 154.35547 105.41406 A 3.442007 3.442007 0 0 1 150.91406 101.9707 A 3.442007 3.442007 0 0 1 154.35547 98.529297 z M 184.64062 98.529297 A 3.442007 3.442007 0 0 1 188.08398 101.9707 A 3.442007 3.442007 0 0 1 184.64062 105.41406 A 3.442007 3.442007 0 0 1 181.19922 101.9707 A 3.442007 3.442007 0 0 1 184.64062 98.529297 z M 72.507812 110.6543 L 268.99805 110.6543 L 268.99805 269.66602 L 253.16797 269.66602 L 229.33789 269.66602 C 229.33789 269.66602 124.28906 269.66702 124.28906 269.66602 L 108.45898 269.66602 L 72.507812 269.66602 L 72.507812 110.6543 z "
       transform="translate(40.677966,79.661017)"
       id="path13" /></g><g
     transform="matrix(1.1237372,0,0,1.1237372,-106.42675,-31.739025)"
     id="g3355"
     style="fill:#ffffff;fill-opacity:1" /></svg>
